src/Eleven-Dark/16/symbolic/categories/emoji-food-symbolic.svg

<?xml version="1.0" encoding="UTF-8" standalone="no"?>
<svg
   width="16"
   height="16"
   version="1.1"
   id="svg1"
   sodipodi:docname="emoji-food-symbolic.svg"
   inkscape:version="1.4.2 (ebf0e940d0, 2025-05-08)"
   xmlns:inkscape="http://www.inkscape.org/namespaces/inkscape"
   xmlns:sodipodi="http://sodipodi.sourceforge.net/DTD/sodipodi-0.dtd"
   xmlns="http://www.w3.org/2000/svg"
   xmlns:svg="http://www.w3.org/2000/svg">
  <defs
     id="defs1">
     <style
        id="current-color-scheme"
        type="text/css">
        .ColorScheme-Text { color:#dedede; }
        .ColorScheme-NeutralText { color:#f67400; }
        .ColorScheme-PositiveText { color:#37c837; }
        .ColorScheme-NegativeText { color:#f44336; }
        .ColorScheme-Highlight { color:#3daee9; }
     </style>
  </defs>
  <sodipodi:namedview
     id="namedview1"
     pagecolor="#ffffff"
     bordercolor="#000000"
     borderopacity="0.25"
     inkscape:showpageshadow="2"
     inkscape:pageopacity="0.0"
     inkscape:pagecheckerboard="0"
     inkscape:deskcolor="#d1d1d1"
     inkscape:zoom="49.6875"
     inkscape:cx="8"
     inkscape:cy="8"
     inkscape:window-width="1920"
     inkscape:window-height="1010"
     inkscape:window-x="0"
     inkscape:window-y="0"
     inkscape:window-maximized="1"
     inkscape:current-layer="svg1" />
  <path
     id="path1"
     style="fill:currentColor"
     class="ColorScheme-Text"
     d="M 2 0 L 2 6 L 3 6.75 L 3 14.5 C 3 15.331 3.669 16 4.5 16 C 5.331 16 6 15.331 6 14.5 L 6 6.75 L 7 6 L 7 0 L 6 0 L 6 5.5 L 5 6 L 5 0 L 4 0 L 4 6 L 3 5.5 L 3 0 L 2 0 z M 13 0 C 11.57 0 10.250156 0.953 9.5351562 2.5 C 8.8211562 4.047 8.8211562 5.953 9.5351562 7.5 C 9.6691563 7.784 9.825 8.050875 10 8.296875 L 10 14.5 C 10 15.331 10.669 16 11.5 16 C 12.331 16 13 15.331 13 14.5 L 13 0 z M 12 1.2792969 L 12 14.5 C 12 15.166666 11 15.166666 11 14.5 L 11 7.890625 C 10.715 7.606625 10.4795 7.2036562 10.3125 6.7226562 C 9.9655 5.7106563 9.878563 4.4729375 10.226562 3.4609375 C 10.574563 2.4489375 11.176 1.4612969 12 1.2792969 z M 4 7.109375 L 5 7.109375 L 5 14.5 C 5 15.166666 4 15.166666 4 14.5 L 4 7.109375 z " />
</svg>

<svg xmlns="http://www.w3.org/2000/svg" width="16" height="16"><path d="M2 0v6l1 .75v7.75c0 .831.669 1.5 1.5 1.5S6 15.331 6 14.5V6.75L7 6V0H6v5.5L5 6V0H4v6l-1-.5V0H2zm2 7.11h1v7.39a.499.499 0 1 1-1 0V7.11zM13 0c-1.43 0-2.75.953-3.465 2.5-.714 1.547-.714 3.453 0 5 .134.284.29.551.465.797V14.5c0 .831.669 1.5 1.5 1.5s1.5-.669 1.5-1.5v-7zm-1 1.28V14.5a.499.499 0 1 1-1 0V7.89c-.285-.284-.521-.686-.688-1.167-.347-1.012-.434-2.251-.086-3.263s.95-1.998 1.774-2.18z" style="font-variation-settings:normal" fill="#dedede"/></svg>
